lib/flags/cy-cyprus.svg

<svg xmlns="http://www.w3.org/2000/svg" fill="none" aria-hidden="true" viewBox="0 0 42 30"><g id="Country=CY - Cyprus, Size=sm (36x24)" filter="url(#filter0_dd_91_28821)"><g clip-path="url(#clip0_91_28821)"><g id="flag"><mask id="mask0_91_28821" width="36" height="24" x="3" y="2" maskUnits="userSpaceOnUse" style="mask-type:alpha"><rect id="mask" width="36" height="24" x="3" y="2" fill="white"/></mask><g mask="url(#mask0_91_28821)"><g id="contents"><path id="background" fill="#F7FCFF" fill-rule="evenodd" d="M3 2V26H39V2H3Z" clip-rule="evenodd"/><mask id="mask1_91_28821" width="36" height="24" x="3" y="2" maskUnits="userSpaceOnUse" style="mask-type:alpha"><path id="background_2" fill="white" fill-rule="evenodd" d="M3 2V26H39V2H3Z" clip-rule="evenodd"/></mask><g mask="url(#mask1_91_28821)"><g id="mark"><path id="Combined Shape" fill="#006B49" fill-rule="evenodd" d="M11.5493 16.3208C11.0677 16.0232 11.2843 15.3704 11.2843 15.3704C11.2843 15.3704 11.9993 15.7315 12.2499 15.8991C12.5006 16.0667 12.6814 16.7583 12.6814 16.7583C12.6814 16.7583 12.0309 16.6183 11.5493 16.3208ZM12.8365 17.2542C12.8122 17.0656 12.8717 16.897 12.8717 16.897C12.8717 16.897 13.4752 17.1837 13.6868 17.3167C13.8983 17.4498 14.0509 17.9987 14.0509 17.9987C14.0509 17.9987 13.5019 17.8876 13.0954 17.6514C12.9475 17.5655 12.8776 17.4424 12.8485 17.3204C12.7272 17.3535 12.4176 17.4252 12.0983 17.3979C11.6881 17.3628 11.3922 16.8513 11.3922 16.8513C11.3922 16.8513 11.9518 16.8493 12.1731 16.8761C12.3454 16.8969 12.6918 17.1454 12.8365 17.2542ZM14.7397 18.2301C14.7397 18.2301 14.7831 18.7675 15.2207 18.8773C15.6583 18.9871 16.1694 18.94 16.1694 18.94C16.1694 18.94 15.828 18.4662 15.5963 18.3996C15.3647 18.3329 14.7397 18.2301 14.7397 18.2301ZM17.3338 19.6687C16.8813 19.6281 16.7336 19.1056 16.7336 19.1056C16.7336 19.1056 17.3692 19.1104 17.6104 19.1402C17.8515 19.1701 18.2803 19.584 18.2803 19.584C18.2803 19.584 17.7862 19.7092 17.3338 19.6687ZM18.1371 18.7013C18.1371 18.7013 18.0758 19.3282 18.5303 19.5384C18.9848 19.7485 19.551 19.7921 19.551 19.7921C19.551 19.7921 19.2748 19.1814 19.036 19.0604C18.7971 18.9393 18.1371 18.7013 18.1371 18.7013ZM18.455 20.3021C17.953 20.3931 17.5568 19.8716 17.5568 19.8716C17.5568 19.8716 18.2382 19.6873 18.5096 19.6478C18.7809 19.6083 19.4279 19.9284 19.4279 19.9284C19.4279 19.9284 18.957 20.2112 18.455 20.3021ZM14.8251 19.1768C14.8251 19.1768 15.063 19.6723 15.517 19.6495C15.971 19.6266 16.4369 19.4342 16.4369 19.4342C16.4369 19.4342 15.9406 19.0851 15.6972 19.0891C15.4537 19.0931 14.8251 19.1768 14.8251 19.1768ZM16.143 18.6094C15.737 18.4274 15.8097 17.8925 15.8097 17.8925C15.8097 17.8925 16.4012 18.0994 16.6143 18.2041C16.8274 18.3089 17.0608 18.8318 17.0608 18.8318C17.0608 18.8318 16.549 18.7914 16.143 18.6094ZM13.8557 16.6529C13.8557 16.6529 13.8567 17.3137 14.1623 17.572C14.4678 17.8302 14.8345 17.9203 14.8345 17.9203C14.8345 17.9203 14.6177 17.2506 14.4564 17.1036C14.2951 16.9566 13.8557 16.6529 13.8557 16.6529ZM12.7351 18.1128C12.7351 18.1128 13.1916 18.6411 13.6617 18.6139C14.1318 18.5868 14.5444 18.3783 14.5444 18.3783C14.5444 18.3783 13.8755 18.0081 13.6201 18.0138C13.3646 18.0196 12.7351 18.1128 12.7351 18.1128ZM12.8451 17.9926C12.5951 18.0129 12.361 17.736 12.361 17.736C12.361 17.736 12.6967 17.6784 12.8324 17.6721C12.9681 17.6659 13.3174 17.8556 13.3174 17.8556C13.3174 17.8556 13.0951 17.9722 12.8451 17.9926ZM13.0532 15.8545C13.0532 15.8545 12.7871 16.1074 12.853 16.3228C12.919 16.5381 13.0868 16.7124 13.0868 16.7124C13.0868 16.7124 13.2363 16.3737 13.2058 16.256C13.1754 16.1383 13.0532 15.8545 13.0532 15.8545ZM15.2569 18.0833C15.1022 18.0317 15.138 17.8655 15.138 17.8655C15.138 17.8655 15.3643 17.9227 15.4454 17.9527C15.5265 17.9827 15.6095 18.1417 15.6095 18.1417C15.6095 18.1417 15.4117 18.135 15.2569 18.0833ZM14.4533 18.7242C14.4533 18.7242 14.4175 18.8904 14.5722 18.9421C14.727 18.9937 14.9247 19.0004 14.9247 19.0004C14.9247 19.0004 14.8418 18.8414 14.7607 18.8115C14.6796 18.7815 14.4533 18.7242 14.4533 18.7242ZM17.4254 18.9421C17.2706 18.8904 17.3065 18.7242 17.3065 18.7242C17.3065 18.7242 17.5327 18.7815 17.6138 18.8115C17.6949 18.8414 17.7779 19.0004 17.7779 19.0004C17.7779 19.0004 17.5801 18.9937 17.4254 18.9421ZM16.7359 19.7738C16.7359 19.7738 16.7 19.94 16.8548 19.9917C17.0095 20.0433 17.2073 20.05 17.2073 20.05C17.2073 20.05 17.1243 19.891 17.0432 19.8611C16.9621 19.8311 16.7359 19.7738 16.7359 19.7738ZM19.7967 20.9121L19.2954 20.5409C19.6077 20.3804 19.9294 20.2526 20.2046 20.1567C20.1289 20.1104 20.0605 20.0756 20.0051 20.0587V19.9371C20.0051 19.9371 20.1924 19.9803 20.473 20.068C20.7535 19.9803 20.9408 19.9371 20.9408 19.9371V20.0587C20.8855 20.0756 20.817 20.1104 20.7413 20.1567C21.0165 20.2526 21.3382 20.3804 21.6506 20.5409L21.1492 20.9121C21.1492 20.9121 20.805 20.5931 20.473 20.3426C20.1409 20.5931 19.7967 20.9121 19.7967 20.9121ZM29.6616 15.3704C29.6616 15.3704 29.8782 16.0232 29.3966 16.3208C28.915 16.6183 28.2646 16.7583 28.2646 16.7583C28.2646 16.7583 28.4453 16.0667 28.696 15.8991C28.9466 15.7315 29.6616 15.3704 29.6616 15.3704ZM28.1094 17.2542C28.1337 17.0656 28.0743 16.897 28.0743 16.897C28.0743 16.897 27.4707 17.1837 27.2592 17.3167C27.0476 17.4498 26.895 17.9987 26.895 17.9987C26.895 17.9987 27.444 17.8876 27.8506 17.6514C27.9984 17.5655 28.0683 17.4424 28.0974 17.3204C28.2188 17.3535 28.5283 17.4252 28.8477 17.3979C29.2578 17.3628 29.5537 16.8513 29.5537 16.8513C29.5537 16.8513 28.9941 16.8493 28.7729 16.8761C28.6005 16.8969 28.2541 17.1454 28.1094 17.2542ZM26.2064 18.2301C26.2064 18.2301 26.163 18.7675 25.7253 18.8773C25.2877 18.9871 24.7767 18.94 24.7767 18.94C24.7767 18.94 25.1181 18.4662 25.3497 18.3996C25.5814 18.3329 26.2064 18.2301 26.2064 18.2301ZM23.6123 19.6687C24.0647 19.6281 24.2125 19.1056 24.2125 19.1056C24.2125 19.1056 23.5768 19.1104 23.3357 19.1402C23.0946 19.1701 22.6658 19.584 22.6658 19.584C22.6658 19.584 23.1599 19.7092 23.6123 19.6687ZM22.809 18.7013C22.809 18.7013 22.8703 19.3282 22.4158 19.5384C21.9613 19.7485 21.3951 19.7921 21.3951 19.7921C21.3951 19.7921 21.6712 19.1814 21.9101 19.0604C22.1489 18.9393 22.809 18.7013 22.809 18.7013ZM22.4911 20.3021C22.9931 20.3931 23.3893 19.8716 23.3893 19.8716C23.3893 19.8716 22.7078 19.6873 22.4365 19.6478C22.1651 19.6083 21.5182 19.9284 21.5182 19.9284C21.5182 19.9284 21.9891 20.2112 22.4911 20.3021ZM26.121 19.1768C26.121 19.1768 25.8831 19.6723 25.4291 19.6495C24.9751 19.6266 24.5092 19.4342 24.5092 19.4342C24.5092 19.4342 25.0055 19.0851 25.2489 19.0891C25.4923 19.0931 26.121 19.1768 26.121 19.1768ZM24.8029 18.6094C25.2089 18.4274 25.1362 17.8925 25.1362 17.8925C25.1362 17.8925 24.5447 18.0994 24.3316 18.2041C24.1185 18.3089 23.8851 18.8318 23.8851 18.8318C23.8851 18.8318 24.3969 18.7914 24.8029 18.6094ZM27.0904 16.6529C27.0904 16.6529 27.0894 17.3137 26.7838 17.572C26.4782 17.8302 26.1116 17.9203 26.1116 17.9203C26.1116 17.9203 26.3284 17.2506 26.4896 17.1036C26.6509 16.9566 27.0904 16.6529 27.0904 16.6529ZM28.2109 18.1128C28.2109 18.1128 27.7544 18.6411 27.2843 18.6139C26.8142 18.5868 26.4017 18.3783 26.4017 18.3783C26.4017 18.3783 27.0705 18.0081 27.326 18.0138C27.5815 18.0196 28.2109 18.1128 28.2109 18.1128ZM28.1009 17.9926C28.351 18.0129 28.585 17.736 28.585 17.736C28.585 17.736 28.2494 17.6784 28.1136 17.6721C27.9779 17.6659 27.6286 17.8556 27.6286 17.8556C27.6286 17.8556 27.8509 17.9722 28.1009 17.9926ZM27.8927 15.8545C27.8927 15.8545 28.1589 16.1074 28.0929 16.3228C28.0269 16.5381 27.8591 16.7124 27.8591 16.7124C27.8591 16.7124 27.7096 16.3737 27.7401 16.256C27.7706 16.1383 27.8927 15.8545 27.8927 15.8545ZM25.689 18.0833C25.8437 18.0317 25.8079 17.8655 25.8079 17.8655C25.8079 17.8655 25.5816 17.9227 25.5005 17.9527C25.4194 17.9827 25.3365 18.1417 25.3365 18.1417C25.3365 18.1417 25.5342 18.135 25.689 18.0833ZM26.4927 18.7242C26.4927 18.7242 26.5286 18.8904 26.3738 18.9421C26.2191 18.9937 26.0213 19.0004 26.0213 19.0004C26.0213 19.0004 26.1043 18.8414 26.1854 18.8115C26.2665 18.7815 26.4927 18.7242 26.4927 18.7242ZM23.5206 18.9421C23.6753 18.8904 23.6395 18.7242 23.6395 18.7242C23.6395 18.7242 23.4132 18.7815 23.3321 18.8115C23.251 18.8414 23.168 19.0004 23.168 19.0004C23.168 19.0004 23.3658 18.9937 23.5206 18.9421ZM24.2101 19.7738C24.2101 19.7738 24.2459 19.94 24.0912 19.9917C23.9364 20.0433 23.7386 20.05 23.7386 20.05C23.7386 20.05 23.8216 19.891 23.9027 19.8611C23.9838 19.8311 24.2101 19.7738 24.2101 19.7738Z" clip-rule="evenodd"/><path id="Path" fill="#F57A01" fill-rule="evenodd" d="M34.2818 5.01709C34.2818 5.01709 34.6712 5.46195 34.2818 5.46195C33.8923 5.46195 32.9021 5.94329 32.9021 5.94329C32.9021 5.94329 32.431 6.5682 31.8605 6.70958C31.29 6.85097 31.0976 7.376 30.2624 7.59483C29.4273 7.81365 29.342 7.8734 29.342 8.09487C29.342 8.31634 29.4844 8.69141 28.9141 8.69141C28.3438 8.69141 27.9407 7.98167 27.6321 8.69141C27.3235 9.40116 27.0109 9.60922 27.4384 10.0434C27.8658 10.4776 28.4322 10.8933 28.6731 11.1441C28.9141 11.3948 30.5212 12.1287 29.342 12.1287C28.1628 12.1287 28.7556 11.4644 27.8478 11.7071C26.94 11.9497 27.4612 12.3076 26.7674 12.1287C26.0737 11.9497 25.6111 11.7864 25.3959 11.8681C25.1806 11.9497 24.8347 11.4145 24.8347 12.1287C24.8347 12.8429 25.4822 12.5534 24.094 13.3423C22.7058 14.1312 22.9815 13.9132 22.3443 13.9132C21.7071 13.9132 21.4832 14.2703 21.0584 14.2703C20.6335 14.2703 20.6853 14.2703 20.2068 14.2703C19.7283 14.2703 20.241 13.8185 19.425 14.2703C18.609 14.7221 18.3167 14.812 18.3167 14.9856C18.3167 15.1592 18.3167 15.6195 18.3167 15.6195C18.3167 15.6195 17.569 15.9997 17.569 15.6195C17.569 15.2393 17.3386 15.142 17.0286 14.9856C16.7186 14.8293 16.0992 14.9418 15.4377 14.9856C14.7762 15.0294 14.0283 14.3925 13.4541 14.3925C12.8798 14.3925 12.773 13.9132 12.6159 13.9132C12.4588 13.9132 12.7798 13.5036 12.1111 13.136C11.4425 12.7684 11.2084 12.7227 11.2084 12.1287C11.2084 11.5347 10.9014 11.3722 10.9014 11.0113C10.9014 10.6503 11.2286 11.1441 11.9222 11.1441C12.6159 11.1441 12.6614 10.7621 13.4541 10.4028C14.2467 10.0434 14.5158 9.84674 15.1767 10.0434C15.8377 10.2401 16.4882 10.9729 17.0286 10.2695C17.569 9.56617 17.569 8.76183 17.569 8.35574C17.569 7.94965 17.2494 7.83399 18.1122 8.09487C18.9749 8.35574 19.4769 8.35574 20.9106 8.35574C22.3443 8.35574 24.0586 8.7725 24.5869 8.35574C25.1152 7.93898 25.6799 7.59483 27.0506 7.59483C28.4213 7.59483 28.8691 6.996 29.7908 6.70958C30.7125 6.42317 29.3533 7.02865 31.4208 6.2453C33.4883 5.46195 34.2818 5.01709 34.2818 5.01709Z" clip-rule="evenodd"/></g></g></g></g></g></g></g><defs><filter id="filter0_dd_91_28821" width="42" height="30" x="0" y="0" color-interpolation-filters="sRGB" filterUnits="userSpaceOnUse"><feFlood flood-opacity="0" result="BackgroundImageFix"/><feColorMatrix in="SourceAlpha" result="hardAlpha" values="0 0 0 0 0 0 0 0 0 0 0 0 0 0 0 0 0 0 127 0"/><feOffset dy="1"/><feGaussianBlur stdDeviation="1"/><feColorMatrix values="0 0 0 0 0.0627451 0 0 0 0 0.0941176 0 0 0 0 0.156863 0 0 0 0.06 0"/><feBlend in2="BackgroundImageFix" result="effect1_dropShadow_91_28821"/><feColorMatrix in="SourceAlpha" result="hardAlpha" values="0 0 0 0 0 0 0 0 0 0 0 0 0 0 0 0 0 0 127 0"/><feOffset dy="1"/><feGaussianBlur stdDeviation="1.5"/><feColorMatrix values="0 0 0 0 0.0627451 0 0 0 0 0.0941176 0 0 0 0 0.156863 0 0 0 0.1 0"/><feBlend in2="effect1_dropShadow_91_28821" result="effect2_dropShadow_91_28821"/><feBlend in="SourceGraphic" in2="effect2_dropShadow_91_28821" result="shape"/></filter><clipPath id="clip0_91_28821"><rect width="36" height="24" x="3" y="2" fill="white" rx="2"/></clipPath></defs></svg>

<svg xmlns="http://www.w3.org/2000/svg" fill="none" aria-hidden="true" viewBox="0 0 42 30"><g filter="url(#a)"><g clip-path="url(#b)"><mask id="c" width="36" height="24" x="3" y="2" maskUnits="userSpaceOnUse" style="mask-type:alpha"><path fill="#fff" d="M3 2h36v24H3z"/></mask><g mask="url(#c)"><path fill="#F7FCFF" fill-rule="evenodd" d="M3 2v24h36V2H3Z" clip-rule="evenodd"/><mask id="d" width="36" height="24" x="3" y="2" maskUnits="userSpaceOnUse" style="mask-type:alpha"><path fill="#fff" fill-rule="evenodd" d="M3 2v24h36V2H3Z" clip-rule="evenodd"/></mask><g fill-rule="evenodd" clip-rule="evenodd" mask="url(#d)"><path fill="#006B49" d="M11.55 16.32c-.482-.297-.266-.95-.266-.95s.715.362.966.53c.25.167.431.858.431.858s-.65-.14-1.132-.437Zm1.286.934c-.024-.188.036-.357.036-.357s.603.287.815.42c.211.133.364.682.364.682s-.55-.111-.956-.348a.506.506 0 0 1-.247-.33c-.12.032-.43.104-.75.077-.41-.035-.706-.547-.706-.547s.56-.002.781.025c.172.02.519.27.663.378Zm1.904.976s.043.537.48.647c.438.11.95.063.95.063s-.342-.474-.574-.54a11.89 11.89 0 0 0-.856-.17Zm2.594 1.439c-.453-.04-.6-.563-.6-.563s.635.004.876.034c.242.03.67.444.67.444s-.494.125-.946.085Zm.803-.968s-.061.627.393.837c.455.21 1.021.254 1.021.254s-.276-.61-.515-.732c-.239-.12-.899-.359-.899-.359Zm.318 1.601c-.502.091-.898-.43-.898-.43s.681-.185.953-.224c.27-.04.918.28.918.28s-.471.283-.973.374Zm-3.63-1.125s.238.495.692.473c.454-.023.92-.216.92-.216s-.496-.349-.74-.345c-.243.004-.872.088-.872.088Zm1.318-.568c-.406-.182-.333-.717-.333-.717s.591.207.804.312c.213.105.447.628.447.628s-.512-.04-.918-.223Zm-2.287-1.956s0 .66.306.919c.306.258.672.348.672.348s-.216-.67-.378-.816c-.16-.147-.6-.451-.6-.451Zm-1.12 1.46s.456.528.926.5c.47-.026.882-.235.882-.235s-.668-.37-.924-.364c-.255.006-.885.099-.885.099Zm.11-.12c-.25.02-.485-.257-.485-.257s.336-.058.471-.064c.136-.006.485.184.485.184s-.222.116-.472.137Zm.207-2.138s-.266.252-.2.468c.066.215.234.39.234.39s.15-.34.119-.457a4.232 4.232 0 0 0-.153-.402Zm2.204 2.228c-.155-.051-.119-.217-.119-.217s.226.057.307.087c.082.03.165.189.165.189s-.198-.007-.353-.059Zm-.804.641s-.035.166.12.218c.154.052.352.058.352.058s-.083-.159-.164-.189a4.872 4.872 0 0 0-.308-.087Zm2.972.218c-.154-.052-.119-.218-.119-.218s.227.058.308.087c.08.03.164.19.164.19s-.198-.007-.353-.059Zm-.69.832s-.035.166.12.218c.154.051.352.058.352.058s-.083-.159-.164-.189c-.08-.03-.307-.087-.307-.087Zm3.062 1.138-.502-.371a7.2 7.2 0 0 1 .91-.384.937.937 0 0 0-.2-.098v-.122s.187.043.468.131c.28-.088.468-.13.468-.13v.12a.94.94 0 0 0-.2.099c.276.096.597.223.91.384l-.502.371s-.344-.319-.676-.57c-.332.251-.676.57-.676.57Zm9.865-5.542s.216.653-.265.95c-.482.298-1.132.438-1.132.438s.18-.691.431-.859c.25-.167.966-.529.966-.529Zm-1.553 1.884c.025-.188-.035-.357-.035-.357s-.603.287-.815.42c-.211.133-.364.682-.364.682s.549-.111.956-.348a.506.506 0 0 0 .246-.33c.122.032.431.104.75.077.41-.035.707-.547.707-.547s-.56-.002-.781.025c-.172.02-.519.27-.664.378Zm-1.903.976s-.043.537-.48.647c-.438.11-.95.063-.95.063s.342-.474.574-.54c.231-.067.856-.17.856-.17Zm-2.594 1.439c.453-.04.6-.563.6-.563s-.635.004-.876.034c-.241.03-.67.444-.67.444s.494.125.946.085Zm-.803-.968s.061.627-.393.837c-.455.21-1.02.254-1.02.254s.275-.61.514-.732c.239-.12.899-.359.899-.359Zm-.318 1.601c.502.091.898-.43.898-.43s-.681-.185-.953-.224c-.27-.04-.918.28-.918.28s.471.283.973.374Zm3.63-1.125s-.238.495-.692.473c-.454-.023-.92-.216-.92-.216s.497-.349.74-.345c.243.004.872.088.872.088Zm-1.318-.568c.406-.182.333-.717.333-.717s-.591.207-.804.312c-.213.105-.447.628-.447.628s.512-.04.918-.223Zm2.287-1.956s0 .66-.306.919c-.306.258-.672.348-.672.348s.216-.67.378-.816c.16-.147.6-.451.6-.451Zm1.12 1.46s-.456.528-.926.5c-.47-.026-.882-.235-.882-.235s.668-.37.924-.364c.255.006.885.099.885.099Zm-.11-.12c.251.02.485-.257.485-.257s-.336-.058-.471-.064c-.136-.006-.485.184-.485.184s.222.116.472.137Zm-.207-2.138s.266.252.2.468c-.066.215-.234.39-.234.39s-.15-.34-.119-.457c.03-.118.153-.402.153-.402Zm-2.204 2.228c.155-.051.119-.217.119-.217s-.226.057-.308.087c-.08.03-.163.189-.163.189s.197-.007.352-.059Zm.804.641s.036.166-.12.218c-.154.052-.352.058-.352.058s.083-.159.164-.189c.082-.03.308-.087.308-.087Zm-2.972.218c.154-.052.119-.218.119-.218s-.227.058-.308.087c-.081.03-.164.19-.164.19s.198-.007.353-.059Zm.69.832s.035.166-.12.218c-.155.051-.352.058-.352.058s.083-.159.164-.189c.08-.03.307-.087.307-.087Z"/><path fill="#F57A01" d="M34.282 5.017s.39.445 0 .445-1.38.481-1.38.481-.471.625-1.042.767c-.57.141-.762.666-1.598.885-.835.219-.92.278-.92.5 0 .221.142.596-.428.596s-.973-.71-1.282 0c-.309.71-.621.918-.194 1.352.428.435.994.85 1.235 1.101.241.25 1.848.985.669.985-1.18 0-.586-.665-1.494-.422-.908.243-.387.6-1.08.422-.694-.18-1.157-.343-1.372-.26-.215.08-.561-.454-.561.26s.647.424-.741 1.213c-1.388.79-1.113.571-1.75.571s-.86.357-1.286.357h-.851c-.479 0 .034-.451-.782 0-.816.452-1.108.542-1.108.716v.633s-.748.38-.748 0-.23-.477-.54-.633c-.31-.157-.93-.044-1.591 0-.662.043-1.41-.594-1.984-.594-.574 0-.681-.479-.838-.479-.157 0 .164-.41-.505-.777-.668-.368-.903-.413-.903-1.007 0-.594-.307-.757-.307-1.118 0-.36.328.133 1.021.133.694 0 .74-.382 1.532-.741.793-.36 1.062-.556 1.723-.36.66.197 1.311.93 1.852.227.54-.704.54-1.508.54-1.914 0-.406-.32-.522.543-.261.863.26 1.365.26 2.799.26 1.433 0 3.148.418 3.676 0 .528-.416 1.093-.76 2.464-.76 1.37 0 1.818-.599 2.74-.885.921-.287-.438.319 1.63-.465 2.067-.783 2.86-1.228 2.86-1.228Z"/></g></g></g></g><defs><clipPath id="b"><rect width="36" height="24" x="3" y="2" fill="#fff" rx="2"/></clipPath><filter id="a" width="42" height="30" x="0" y="0" color-interpolation-filters="sRGB" filterUnits="userSpaceOnUse"><feFlood flood-opacity="0" result="BackgroundImageFix"/><feColorMatrix in="SourceAlpha" result="hardAlpha" values="0 0 0 0 0 0 0 0 0 0 0 0 0 0 0 0 0 0 127 0"/><feOffset dy="1"/><feGaussianBlur stdDeviation="1"/><feColorMatrix values="0 0 0 0 0.0627451 0 0 0 0 0.0941176 0 0 0 0 0.156863 0 0 0 0.06 0"/><feBlend in2="BackgroundImageFix" result="effect1_dropShadow_91_28821"/><feColorMatrix in="SourceAlpha" result="hardAlpha" values="0 0 0 0 0 0 0 0 0 0 0 0 0 0 0 0 0 0 127 0"/><feOffset dy="1"/><feGaussianBlur stdDeviation="1.5"/><feColorMatrix values="0 0 0 0 0.0627451 0 0 0 0 0.0941176 0 0 0 0 0.156863 0 0 0 0.1 0"/><feBlend in2="effect1_dropShadow_91_28821" result="effect2_dropShadow_91_28821"/><feBlend in="SourceGraphic" in2="effect2_dropShadow_91_28821" result="shape"/></filter></defs></svg>
